X: 7591
T: Coen's Memories
R: reel
M: 4/4
K: Edorian
"Flute"E3 "-friend"D "ly"EFGA|"ver"B2 " sion"ec dBAF|D3 F EFDE|FAFE EDFD|
E3D EFGA|B2 ec dBAF|DEFA dBAF|1 DEFD E2 ED:|

